**kern	**text	**kern	**text	**kern	**text	**kern	**text	**kern	**text
*staff5	*staff5	*staff4	*staff4	*staff3	*staff3	*staff2	*staff2	*staff1	*staff1
*I"Basso	*	*I"Tenore	*	*I"Alto	*	*I"Soprano II	*	*I"Soprano I	*
=1-	=1-	=1-	=1-	=1-	=1-	=1-	=1-	=1-	=1-
*clefF4	*	*clefGv2	*	*clefGv2	*	*clefG2	*	*clefG2	*
*k[]	*	*k[]	*	*k[]	*	*k[]	*	*k[]	*
*met(c|)	*	*met(c|)	*	*met(c|)	*	*met(c|)	*	*met(c|)	*
*M2/2	*	*M2/2	*	*M2/2	*	*M2/2	*	*M2/2	*
1C	Se-	1G	Se-	[1c	Se-	1r	.	[1e	Se-
=2	=2	=2	=2	=2	=2	=2	=2	=2	=2
2C/	-ni-	2G/	-ni-	2c\]	.	1r	.	2e/]	.
[2C/	-o-	[2G/	-o-	2c\	-ni-	.	.	2e/	-ni-
=3	=3	=3	=3	=3	=3	=3	=3	=3	=3
2C/]	.	2G/]	.	2c\	-o-	1r	.	2e/	-o-
2AA/	-res	2A/	-res	2c\	-res	.	.	2e/	-res
=4	=4	=4	=4	=4	=4	=4	=4	=4	=4
2.D\	po-	2.F/	po-	2.A/	po-	1r	.	2.f/	po-
4D\	-pu-	4F/	-pu-	4B\	-pu-	.	.	4f/	-pu-
=5	=5	=5	=5	=5	=5	=5	=5	=5	=5
1C	-li	1G	-li	1c	-li	1r	.	1e	-li
=6	=6	=6	=6	=6	=6	=6	=6	=6	=6
1G	con-	1B	con-	1d	con-	1r	.	1g	con-
=7	=7	=7	=7	=7	=7	=7	=7	=7	=7
[1F	-si-	[1c	-si-	[1f	-si-	1r	.	[1a	-si-
=8	=8	=8	=8	=8	=8	=8	=8	=8	=8
2F\]	.	2c\]	.	2f\]	.	1r	.	2a/]	.
2C/	-li-	2c\	-li-	2e\	-li-	.	.	2g/	-li-
=9	=9	=9	=9	=9	=9	=9	=9	=9	=9
1D	-um	1A	-um	1d	-um	1r	.	1f	-um
=10	=10	=10	=10	=10	=10	=10	=10	=10	=10
!!linebreak:original
1E	fe-	1G	fe-	2c\	fe-	1r	.	1e	fe-
.	.	.	.	[2c\	-ce-	.	.	.	.
=11	=11	=11	=11	=11	=11	=11	=11	=11	=11
2.F\	-ce-	4A/	-ce-	4c\]	.	1r	.	1c	-ce-
.	.	4B\	.	4B\	.	.	.	.	.
.	.	[2c\	.	2A/	.	.	.	.	.
4E\	.	.	.	.	.	.	.	.	.
=12	=12	=12	=12	=12	=12	=12	=12	=12	=12
1D	.	2c\]	.	1d	.	1r	.	1f	.
.	.	2B\	.	.	.	.	.	.	.
=13	=13	=13	=13	=13	=13	=13	=13	=13	=13
[1C	-runt,	[1c	-runt,	[1G	-runt,	1r	.	[1e	-runt,
=14	=14	=14	=14	=14	=14	=14	=14	=14	=14
1C]	.	1c]	.	1G]	.	1r	.	1e]	.
=15||	=15||	=15||	=15||	=15||	=15||	=15||	=15||	=15||	=15||
1C	Ut	1G	Ut	1c	Ut	1r	.	1e	Ut
=16	=16	=16	=16	=16	=16	=16	=16	=16	=16
[1F	Je-	[1A	Je-	[1c	Je-	1r	.	[1f	Je-
=17	=17	=17	=17	=17	=17	=17	=17	=17	=17
1F]	.	1A]	.	1c]	.	1r	.	1f]	.
=18	=18	=18	=18	=18	=18	=18	=18	=18	=18
1C	-sum	1G	-sum	1c	-sum	1r	.	1e	-sum
=19	=19	=19	=19	=19	=19	=19	=19	=19	=19
1AA	do-	1A	do-	1c#	do-	1r	.	1e	do-
=20	=20	=20	=20	=20	=20	=20	=20	=20	=20
2D\	-lo	2A/	-lo	2d\	-lo	1r	.	2f/	-lo
2AA/	te-	2A/	te-	2c#\	te-	.	.	2e/	te-
=21	=21	=21	=21	=21	=21	=21	=21	=21	=21
1D	-ne-	1A	-ne-	1d	-ne-	1r	.	1f	-ne-
=22	=22	=22	=22	=22	=22	=22	=22	=22	=22
1BB	.	[1B	-rent,	1d#	-rent,	1r	.	1f#	-rent,
=23	=23	=23	=23	=23	=23	=23	=23	=23	=23
1BB	-rent,	1B]	.	1d#	et	1r	.	1f#i	et
=24	=24	=24	=24	=24	=24	=24	=24	=24	=24
!!pagebreak:original
1E	et	1G	et	1e	.	1r	.	[1g	oc-
=25	=25	=25	=25	=25	=25	=25	=25	=25	=25
2C/	oc-	2E/	oc-	2e\	oc-	1r	.	2g/]	.
[2AA/	-ci-	[2E/	-ci-	[2c\	-ci-	.	.	[2a/	-ci-
=26	=26	=26	=26	=26	=26	=26	=26	=26	=26
2AA/]	.	2E/]	.	2c\]	.	1r	.	2a/]	.
2AA/	-de-	2F/	-de-	2c\	-de-	.	.	2a/	-de-
=27	=27	=27	=27	=27	=27	=27	=27	=27	=27
[1GG	-rent:	[1G	-rent:	[1c	-rent:	1r	.	[1d	-rent:
=28	=28	=28	=28	=28	=28	=28	=28	=28	=28
1GG]	.	1G]	.	1c]	.	1r	.	1d]	.
=29	=29	=29	=29	=29	=29	=29	=29	=29	=29
2C/	cum	2G/	cum	2c\	cum	1r	.	2e/	cum
[2F\	gla-	[2A/	gla-	[2c\	gla-	.	.	[2f/	gla-
=30	=30	=30	=30	=30	=30	=30	=30	=30	=30
2F\]	.	2A/]	.	2c\]	.	1r	.	2f/]	.
2C/	-di-	2G/	-di-	2c\	-di-	.	.	2e/	-di-
=31	=31	=31	=31	=31	=31	=31	=31	=31	=31
2F\	-is	2A/	-is	2c\	-is	1r	.	2f/	-is
2A\	et	2c\	et	2c\	et	.	.	2e/	et
=32	=32	=32	=32	=32	=32	=32	=32	=32	=32
2.G\	fu-	2.B\	fu-	2.d\	fu-	1r	.	2.g/	fu-
4G\	-sti-	4B\	-sti-	4d\	-sti-	.	.	4g/	-sti-
=33	=33	=33	=33	=33	=33	=33	=33	=33	=33
2G\	-bus	2B\	-bus	2d\	-bus	1r	.	2g/	-bus
[2D\	ex-	[2A/	ex-	[2d\	ex-	.	.	[2f#/	ex-
=34	=34	=34	=34	=34	=34	=34	=34	=34	=34
2D\]	.	2A/]	.	2d\]	.	1r	.	2f#/]	.
2G\	-i-	2B\	-i-	2d\	-i-	.	.	2g/	-i-
=35	=35	=35	=35	=35	=35	=35	=35	=35	=35
1F	-e-	1c	-e-	1f	-e-	1r	.	1a	-e-
=36	=36	=36	=36	=36	=36	=36	=36	=36	=36
!!linebreak:original
2C/	-runt	2c\	-runt	2e\	-runt	1r	.	2g/	-runt
[2F\	tam-	[2A/	tam-	[2c\	tam-	.	.	[2a/	tam-
=37	=37	=37	=37	=37	=37	=37	=37	=37	=37
2F\]	.	2A/]	.	2c\]	.	1r	.	2a/]	.
2D\	-quam	2A/	-quam	2d\	-quam	.	.	2f/	-quam
=38	=38	=38	=38	=38	=38	=38	=38	=38	=38
1E	ad	1G	ad	1B	ad	1r	.	1g	ad
=39	=39	=39	=39	=39	=39	=39	=39	=39	=39
1C	la-	2.G/	la-	1c	la-	1r	.	1e	la-
.	.	8F#/L	.	.	.	.	.	.	.
.	.	8E/J	.	.	.	.	.	.	.
=40	=40	=40	=40	=40	=40	=40	=40	=40	=40
1D	-tro-	1F#i	-tro-	1A	-tro-	1r	.	1d	-tro-
=41	=41	=41	=41	=41	=41	=41	=41	=41	=41
[1GG	-nem.	[1G	-nem.	[1B	-nem.	1r	.	[1d	-nem.
=42	=42	=42	=42	=42	=42	=42	=42	=42	=42
1GG]	.	1G]	.	1B]	.	1r	.	1d]	.
=43||	=43||	=43||	=43||	=43||	=43||	=43||	=43||	=43||	=43||
1r	.	1r	.	1r	.	[1g	Col-	1r	.
=44	=44	=44	=44	=44	=44	=44	=44	=44	=44
1r	.	1r	.	1r	.	2g/]	.	1r	.
.	.	.	.	.	.	2f/	-le-	.	.
=45	=45	=45	=45	=45	=45	=45	=45	=45	=45
1r	.	1r	.	1r	.	1e	-ge-	[1g	Col-
=46	=46	=46	=46	=46	=46	=46	=46	=46	=46
1r	.	1r	.	1r	.	1d	-runt	2g/]	.
.	.	.	.	.	.	.	.	2f/	-le-
=47	=47	=47	=47	=47	=47	=47	=47	=47	=47
1r	.	1r	.	1r	.	1g	pon-	1e	-ge-
=48	=48	=48	=48	=48	=48	=48	=48	=48	=48
!!linebreak:original
1r	.	1r	.	1r	.	2.f/	-ti-	1d	-runt
.	.	.	.	.	.	4f/	-fi-	.	.
=49	=49	=49	=49	=49	=49	=49	=49	=49	=49
1r	.	1r	.	1r	.	2e/	-ces	1g	pon-
.	.	.	.	.	.	2e/	et	.	.
=50	=50	=50	=50	=50	=50	=50	=50	=50	=50
1r	.	1r	.	1r	.	1a	pha-	2.f/	-ti-
.	.	.	.	.	.	.	.	4f/	-fi-
=51	=51	=51	=51	=51	=51	=51	=51	=51	=51
1r	.	1r	.	1r	.	1g	-ri-	2e/	-ces
.	.	.	.	.	.	.	.	2e/	et
=52	=52	=52	=52	=52	=52	=52	=52	=52	=52
1r	.	1r	.	1r	.	1cc	-sae-	1a	pha-
=53	=53	=53	=53	=53	=53	=53	=53	=53	=53
1r	.	1r	.	1r	.	2b\	-i	1g	-ri-
.	.	.	.	.	.	[2b\	con-	.	.
=54	=54	=54	=54	=54	=54	=54	=54	=54	=54
1r	.	1r	.	1r	.	2b\]	.	1cc	-sae-
.	.	.	.	.	.	[2a/	-ci-	.	.
=55	=55	=55	=55	=55	=55	=55	=55	=55	=55
1r	.	1r	.	1r	.	4a/]	.	2b\	-i
.	.	.	.	.	.	4g/	.	.	.
.	.	.	.	.	.	[2g/	-li-	2b\	con-
=56	=56	=56	=56	=56	=56	=56	=56	=56	=56
1r	.	1r	.	1r	.	2g/]	.	2.a/	-ci-
.	.	.	.	.	.	2f#/	.	.	.
.	.	.	.	.	.	.	.	4a/	-li-
=57	=57	=57	=57	=57	=57	=57	=57	=57	=57
1r	.	1r	.	1r	.	[1g	-um.	[1b	-um.
=58	=58	=58	=58	=58	=58	=58	=58	=58	=58
1r	.	1r	.	1r	.	1g]	.	1b]	.
!!pagebreak:original
=59||	=59||	=59||	=59||	=59||	=59||	=59||	=59||	=59||	=59||
!!pagebreak:original
1C	Ut	1G	Ut	1c	Ut	1r	.	1e	Ut
=60	=60	=60	=60	=60	=60	=60	=60	=60	=60
[1F	Je-	[1A	Je-	[1c	Je-	1r	.	[1f	Je-
=61	=61	=61	=61	=61	=61	=61	=61	=61	=61
1F]	.	1A]	.	1c]	.	1r	.	1f]	.
=62	=62	=62	=62	=62	=62	=62	=62	=62	=62
1C	-sum	1G	-sum	1c	-sum	1r	.	1e	-sum
=63	=63	=63	=63	=63	=63	=63	=63	=63	=63
1AA	do-	1A	do-	1c#	do-	1r	.	1e	do-
=64	=64	=64	=64	=64	=64	=64	=64	=64	=64
2D\	-lo	2A/	-lo	2d\	-lo	1r	.	2f/	-lo
2AA/	te-	2A/	te-	2c#\	te-	.	.	2e/	te-
=65	=65	=65	=65	=65	=65	=65	=65	=65	=65
1D	-ne-	1A	-ne-	1d	-ne-	1r	.	1f	-ne-
=66	=66	=66	=66	=66	=66	=66	=66	=66	=66
1BB	.	[1B	-rent,	1d#	-rent,	1r	.	1f#	-rent,
=67	=67	=67	=67	=67	=67	=67	=67	=67	=67
1BB	-rent,	1B]	.	1d#	et	1r	.	1f#i	et
=68	=68	=68	=68	=68	=68	=68	=68	=68	=68
1E	et	1G	et	1e	.	1r	.	[1g	oc-
=69	=69	=69	=69	=69	=69	=69	=69	=69	=69
2C/	oc-	2E/	oc-	2e\	oc-	1r	.	2g/]	.
[2AA/	-ci-	[2E/	-ci-	[2c\	-ci-	.	.	[2a/	-ci-
=70	=70	=70	=70	=70	=70	=70	=70	=70	=70
2AA/]	.	2E/]	.	2c\]	.	1r	.	2a/]	.
2AA/	-de-	2F/	-de-	2c\	-de-	.	.	2a/	-de-
=71	=71	=71	=71	=71	=71	=71	=71	=71	=71
!!linebreak:original
[1GG	-rent:	[1G	-rent:	[1c	-rent:	1r	.	[1d	-rent:
=72	=72	=72	=72	=72	=72	=72	=72	=72	=72
1GG]	.	1G]	.	1c]	.	1r	.	1d]	.
=73	=73	=73	=73	=73	=73	=73	=73	=73	=73
2C/	cum	2G/	cum	2c\	cum	1r	.	2e/	cum
[2F\	gla-	[2A/	gla-	[2c\	gla-	.	.	[2f/	gla-
=74	=74	=74	=74	=74	=74	=74	=74	=74	=74
2F\]	.	2A/]	.	2c\]	.	1r	.	2f/]	.
2C/	-di-	2G/	-di-	2c\	-di-	.	.	2e/	-di-
=75	=75	=75	=75	=75	=75	=75	=75	=75	=75
2F\	-is	2A/	-is	2c\	-is	1r	.	2f/	-is
2A\	et	2c\	et	2c\	et	.	.	2e/	et
=76	=76	=76	=76	=76	=76	=76	=76	=76	=76
2.G\	fu-	2.B\	fu-	2.d\	fu-	1r	.	2.g/	fu-
4G\	-sti-	4B\	-sti-	4d\	-sti-	.	.	4g/	-sti-
=77	=77	=77	=77	=77	=77	=77	=77	=77	=77
2G\	-bus	2B\	-bus	2d\	-bus	1r	.	2g/	-bus
[2D\	ex-	[2A/	ex-	[2d\	ex-	.	.	[2f#/	ex-
=78	=78	=78	=78	=78	=78	=78	=78	=78	=78
2D\]	.	2A/]	.	2d\]	.	1r	.	2f#/]	.
2G\	-i-	2B\	-i-	2d\	-i-	.	.	2g/	-i-
=79	=79	=79	=79	=79	=79	=79	=79	=79	=79
!!linebreak:original
1F	-e-	1c	-e-	1f	-e-	1r	.	1a	-e-
=80	=80	=80	=80	=80	=80	=80	=80	=80	=80
2C/	-runt	2c\	-runt	2e\	-runt	1r	.	2g/	-runt
[2F\	tam-	[2A/	tam-	[2c\	tam-	.	.	[2a/	tam-
=81	=81	=81	=81	=81	=81	=81	=81	=81	=81
2F\]	.	2A/]	.	2c\]	.	1r	.	2a/]	.
2D\	-quam	2A/	-quam	2d\	-quam	.	.	2f/	-quam
=82	=82	=82	=82	=82	=82	=82	=82	=82	=82
1E	ad	1G	ad	1B	ad	1r	.	1g	ad
=83	=83	=83	=83	=83	=83	=83	=83	=83	=83
1C	la-	2.G/	la-	1c	la-	1r	.	1e	la-
.	.	8F#/L	.	.	.	.	.	.	.
.	.	8E/J	.	.	.	.	.	.	.
=84	=84	=84	=84	=84	=84	=84	=84	=84	=84
1D	-tro-	1F#i	-tro-	1A	-tro-	1r	.	1d	-tro-
=85	=85	=85	=85	=85	=85	=85	=85	=85	=85
[1GG	-nem.	[1G	-nem.	[1B	-nem.	1r	.	[1d	-nem.
=86	=86	=86	=86	=86	=86	=86	=86	=86	=86
1GG]	.	1G]	.	1B]	.	1r	.	1d]	.
==	==	==	==	==	==	==	==	==	==
*-	*-	*-	*-	*-	*-	*-	*-	*-	*-
!!!OTL: Seniores populi 
!!!COM: Ingegneri, Marc' Antonio
!!!CDT: ca. 1535/36-1592-07-01
!!!TXO: Latin
!!!ODT: 
!!!ARL: Klasztor OO. Paulinów na Jasnej Górze
!!!voices:	5
!!title: @{OTL}, @{GTL}, ed. @{ENC}
!!!pag:
!!!GTL: Responsoria in Hebdomada majore
!!!EFL: 
!!!YEM: Creative Commons CC/BY/NC/SA 4.0
!!!ENC: Marcin Konik
!!!END: 2015-0m-dd
!!!EED: Marcin Konik
!!!EEV: 
!!!ONB: Encoded in vim by Marcin Konik
!!!CharacterEncoding: utf-8
!!!RDF**kern: l=long note in original notation
!!!RDF**kern: i=editorial accidental
!!muse2ps: z14jc180F
